packages/kaspersky-hexa-ui-icons/src/iconsSVGs/16x12/FlagMs.svg

<svg width="16" height="12" viewBox="0 0 16 12" fill="none" xmlns="http://www.w3.org/2000/svg">
<g clip-path="url(#clip0_41816_3239)">
<rect width="16" height="12" rx="2" fill="white"/>
<mask id="mask0_41816_3239" style="mask-type:luminance" maskUnits="userSpaceOnUse" x="0" y="0" width="16" height="12">
<rect width="16" height="12" rx="2" fill="white"/>
</mask>
<g mask="url(#mask0_41816_3239)">
<rect width="16" height="12" fill="#07319C"/>
<rect width="6.85714" height="5.6" fill="#042C90"/>
<mask id="mask1_41816_3239" style="mask-type:alpha" maskUnits="userSpaceOnUse" x="0" y="0" width="7" height="6">
<rect width="6.85714" height="5.6" fill="#042C90"/>
</mask>
<g mask="url(#mask1_41816_3239)">
<mask id="path-6-outside-1_41816_3239" maskUnits="userSpaceOnUse" x="-2.14679" y="-1.08125" width="10" height="8" fill="black">
<rect fill="white" x="-2.14679" y="-1.08125" width="10" height="8"/>
<path fill-rule="evenodd" clip-rule="evenodd" d="M2.64224 2.42888L-0.14679 -0.0812531H0.251644L3.04068 2.01052H3.83754L7.02501 -0.0812531V0.170435C7.02501 0.275354 6.97561 0.37415 6.89168 0.437102L4.23598 2.42888V3.26559L6.76244 5.53941C6.85478 5.62251 6.79599 5.77572 6.67176 5.77572C6.64243 5.77572 6.61389 5.7662 6.59043 5.74861L3.83754 3.68394H3.04068L-0.14679 5.77572V5.35736L2.64224 3.26559V2.42888Z"/>
</mask>
<path fill-rule="evenodd" clip-rule="evenodd" d="M2.64224 2.42888L-0.14679 -0.0812531H0.251644L3.04068 2.01052H3.83754L7.02501 -0.0812531V0.170435C7.02501 0.275354 6.97561 0.37415 6.89168 0.437102L4.23598 2.42888V3.26559L6.76244 5.53941C6.85478 5.62251 6.79599 5.77572 6.67176 5.77572C6.64243 5.77572 6.61389 5.7662 6.59043 5.74861L3.83754 3.68394H3.04068L-0.14679 5.77572V5.35736L2.64224 3.26559V2.42888Z" fill="#FF2E3B"/>
<path fill-rule="evenodd" clip-rule="evenodd" d="M2.64224 2.42888L-0.14679 -0.0812531H0.251644L3.04068 2.01052H3.83754L7.02501 -0.0812531V0.170435C7.02501 0.275354 6.97561 0.37415 6.89168 0.437102L4.23598 2.42888V3.26559L6.76244 5.53941C6.85478 5.62251 6.79599 5.77572 6.67176 5.77572C6.64243 5.77572 6.61389 5.7662 6.59043 5.74861L3.83754 3.68394H3.04068L-0.14679 5.77572V5.35736L2.64224 3.26559V2.42888Z" stroke="white" stroke-width="0.8" mask="url(#path-6-outside-1_41816_3239)"/>
<path fill-rule="evenodd" clip-rule="evenodd" d="M-1.04596 2.04548V3.65063H2.67518V5.8C2.67518 5.96569 2.8095 6.1 2.97518 6.1H3.9039C4.06958 6.1 4.2039 5.96569 4.2039 5.8V3.65063H7.05767C7.22335 3.65063 7.35767 3.51631 7.35767 3.35063V2.34548C7.35767 2.17979 7.22335 2.04548 7.05767 2.04548H4.2039V-1.00685H2.67518V2.04548H-1.04596Z" fill="white"/>
<path fill-rule="evenodd" clip-rule="evenodd" d="M-0.14679 2.42888H3.04068V2.01052V-0.0812531H3.83754V2.01052V2.42888H7.02501V3.26559H3.83754V3.68394V5.77572H3.04068V3.68394V3.26559H-0.14679V2.42888Z" fill="url(#paint0_linear_41816_3239)"/>
</g>
</g>
<g clip-path="url(#clip1_41816_3239)">
<path fill-rule="evenodd" clip-rule="evenodd" d="M9.90479 6C9.90479 5.53231 9.90479 5.00386 9.90479 4.53305C9.90479 3.79667 10.5017 3.2 11.2381 3.2H12.381C13.1174 3.2 13.7143 3.79667 13.7143 4.53305C13.7143 5.00386 13.7143 5.53231 13.7143 6C13.7143 8 11.8095 8.8 11.8095 8.8C11.8095 8.8 9.90479 8 9.90479 6Z" fill="#08B9D6"/>
<mask id="mask2_41816_3239" style="mask-type:luminance" maskUnits="userSpaceOnUse" x="9" y="3" width="5" height="6">
<path fill-rule="evenodd" clip-rule="evenodd" d="M9.90479 6C9.90479 5.53231 9.90479 5.00386 9.90479 4.53305C9.90479 3.79667 10.5017 3.2 11.2381 3.2H12.381C13.1174 3.2 13.7143 3.79667 13.7143 4.53305C13.7143 5.00386 13.7143 5.53231 13.7143 6C13.7143 8 11.8095 8.8 11.8095 8.8C11.8095 8.8 9.90479 8 9.90479 6Z" fill="white"/>
</mask>
<g mask="url(#mask2_41816_3239)">
<path fill-rule="evenodd" clip-rule="evenodd" d="M9.90479 7.2H13.7143V8.8H12.1905H11.4286H9.90479L9.90479 7.2Z" fill="#A63D09"/>
<path d="M12.1902 4.79993H12.952V5.59973H12.1902V7.20032H11.4285V5.59973H10.6668V4.79993H11.4285V4.00012H12.1902V4.79993Z" fill="#262626"/>
</g>
</g>
</g>
<defs>
<linearGradient id="paint0_linear_41816_3239" x1="-0.14679" y1="-0.0812531" x2="-0.14679" y2="5.77572" gradientUnits="userSpaceOnUse">
<stop stop-color="#FF2E3B"/>
<stop offset="1" stop-color="#FC0D1B"/>
</linearGradient>
<clipPath id="clip0_41816_3239">
<rect width="16" height="12" fill="white"/>
</clipPath>
<clipPath id="clip1_41816_3239">
<rect width="4" height="6" fill="white" transform="translate(9.90479 3.2)"/>
</clipPath>
</defs>
</svg>

<svg xmlns="http://www.w3.org/2000/svg" width="16" height="12" fill="none" viewBox="0 0 16 12"><g clip-path="url(#a)"><rect width="16" height="12" fill="#fff" rx="2"/><mask id="b" width="16" height="12" x="0" y="0" maskUnits="userSpaceOnUse" style="mask-type:luminance"><rect width="16" height="12" fill="#fff" rx="2"/></mask><g mask="url(#b)"><path fill="#07319c" d="M0 0h16v12H0z"/><path fill="#042c90" d="M0 0h6.8571v5.6H0z"/><mask id="c" width="7" height="6" x="0" y="0" maskUnits="userSpaceOnUse" style="mask-type:alpha"><path fill="#042c90" d="M0 0h6.8571v5.6H0z"/></mask><g mask="url(#c)"><mask id="d" width="10" height="8" x="-2" y="-1" fill="#000" maskUnits="userSpaceOnUse"><path fill="#fff" d="M-2.1468-1.0813h10v8h-10z"/><path fill-rule="evenodd" d="M2.6422 2.4289-.1468-.0813h.3984l2.789 2.0918h.797L7.025-.0813v.2517a.333.333 0 0 1-.1333.2667L4.236 2.4289v.8367l2.5264 2.2738c.0924.0831.0336.2363-.0906.2363a.136.136 0 0 1-.0814-.027L3.8375 3.6838h-.7968L-.1468 5.7757v-.4183l2.789-2.0918z" clip-rule="evenodd"/></mask><path fill="#ff2e3b" fill-rule="evenodd" d="M2.6422 2.4289-.1468-.0813h.3984l2.789 2.0918h.797L7.025-.0813v.2517a.333.333 0 0 1-.1333.2667L4.236 2.4289v.8367l2.5264 2.2738c.0924.0831.0336.2363-.0906.2363a.136.136 0 0 1-.0814-.027L3.8375 3.6838h-.7968L-.1468 5.7757v-.4183l2.789-2.0918z" clip-rule="evenodd"/><path stroke="#fff" d="M2.6422 2.4289-.1468-.0813h.3984l2.789 2.0918h.797L7.025-.0813v.2517a.333.333 0 0 1-.1333.2667L4.236 2.4289v.8367l2.5264 2.2738c.0924.0831.0336.2363-.0906.2363a.136.136 0 0 1-.0814-.027L3.8375 3.6838h-.7968L-.1468 5.7757v-.4183l2.789-2.0918z" clip-rule="evenodd" mask="url(#d)"/><path fill="#fff" fill-rule="evenodd" d="M-1.046 2.0455v1.6051h3.7212V5.8a.3.3 0 0 0 .3.3h.9287a.3.3 0 0 0 .3-.3V3.6506h2.8538a.3.3 0 0 0 .3-.3V2.3455a.3.3 0 0 0-.3-.3H4.2039v-3.0523H2.6752v3.0523z" clip-rule="evenodd"/><path fill="url(#e)" fill-rule="evenodd" d="M-.1468 2.4289h3.1875V-.0813h.7968V2.429H7.025v.8367H3.8375v2.5101h-.7968V3.2656H-.1468z" clip-rule="evenodd"/></g></g><g clip-path="url(#f)"><path fill="#08b9d6" fill-rule="evenodd" d="M9.9048 6V4.533c0-.7363.5969-1.333 1.3333-1.333h1.1429c.7364 0 1.3333.5967 1.3333 1.333V6c0 2-1.9048 2.8-1.9048 2.8S9.9048 8 9.9048 6" clip-rule="evenodd"/><mask id="g" width="5" height="6" x="9" y="3" maskUnits="userSpaceOnUse" style="mask-type:luminance"><path fill="#fff" fill-rule="evenodd" d="M9.9048 6V4.533c0-.7363.5969-1.333 1.3333-1.333h1.1429c.7364 0 1.3333.5967 1.3333 1.333V6c0 2-1.9048 2.8-1.9048 2.8S9.9048 8 9.9048 6" clip-rule="evenodd"/></mask><g mask="url(#g)"><path fill="#a63d09" fill-rule="evenodd" d="M9.9048 7.2h3.8095v1.6H9.9048z" clip-rule="evenodd"/><path fill="#262626" d="M12.1902 4.8h.7618v.7997h-.7618v1.6006h-.7617V5.5997h-.7617V4.8h.7617v-.7998h.7617z"/></g></g></g><defs><clipPath id="a"><path fill="#fff" d="M0 0h16v12H0z"/></clipPath><clipPath id="f"><path fill="#fff" d="M9.9048 3.2h4v6h-4z"/></clipPath><linearGradient id="e" x1="0" x2="0" y1="0" y2="6" gradientUnits="userSpaceOnUse"><stop stop-color="#ff2e3b"/><stop offset="1" stop-color="#fc0d1b"/></linearGradient></defs></svg>
